src/assets/images/icons/siteLogo.svg

<svg width="211" height="36" viewBox="0 0 211 36" fill="none" xmlns="http://www.w3.org/2000/svg">
<path d="M44.7209 28C44.5009 28 44.3209 27.93 44.1809 27.79C44.0409 27.65 43.9709 27.47 43.9709 27.25V11.17H38.5109C38.3109 11.17 38.1409 11.1 38.0009 10.96C37.8609 10.82 37.7909 10.65 37.7909 10.45V7.75C37.7909 7.53 37.8609 7.35 38.0009 7.21C38.1409 7.07 38.3109 7 38.5109 7H54.2309C54.4509 7 54.6309 7.07 54.7709 7.21C54.9109 7.35 54.9809 7.53 54.9809 7.75V10.45C54.9809 10.65 54.9109 10.82 54.7709 10.96C54.6309 11.1 54.4509 11.17 54.2309 11.17H48.8009V27.25C48.8009 27.47 48.7309 27.65 48.5909 27.79C48.4509 27.93 48.2709 28 48.0509 28H44.7209ZM56.4694 28C56.2694 28 56.0994 27.93 55.9594 27.79C55.8194 27.65 55.7494 27.47 55.7494 27.25V13.15C55.7494 12.95 55.8194 12.78 55.9594 12.64C56.0994 12.48 56.2694 12.4 56.4694 12.4H59.4094C59.6094 12.4 59.7794 12.48 59.9194 12.64C60.0794 12.78 60.1594 12.95 60.1594 13.15V14.35C60.6594 13.73 61.2694 13.25 61.9894 12.91C62.7294 12.57 63.5794 12.4 64.5394 12.4H65.8294C66.0294 12.4 66.1994 12.47 66.3394 12.61C66.4794 12.75 66.5494 12.93 66.5494 13.15V15.73C66.5494 15.95 66.4794 16.13 66.3394 16.27C66.1994 16.41 66.0294 16.48 65.8294 16.48H63.1894C62.3094 16.48 61.6194 16.73 61.1194 17.23C60.6194 17.71 60.3694 18.4 60.3694 19.3V27.25C60.3694 27.47 60.2994 27.65 60.1594 27.79C60.0194 27.93 59.8394 28 59.6194 28H56.4694ZM73.1128 28.3C72.0528 28.3 71.1028 28.1 70.2628 27.7C69.4228 27.28 68.7528 26.72 68.2528 26.02C67.7528 25.32 67.5028 24.54 67.5028 23.68C67.5028 22.26 68.0728 21.14 69.2128 20.32C70.3728 19.5 71.8928 18.94 73.7728 18.64L77.7028 18.07V17.53C77.7028 16.75 77.5228 16.15 77.1628 15.73C76.8028 15.31 76.1728 15.1 75.2728 15.1C74.6128 15.1 74.0828 15.23 73.6828 15.49C73.2828 15.75 72.9728 16.09 72.7528 16.51C72.5928 16.77 72.3628 16.9 72.0628 16.9H69.2128C68.9928 16.9 68.8228 16.84 68.7028 16.72C68.5828 16.58 68.5328 16.42 68.5528 16.24C68.5528 15.9 68.6828 15.5 68.9428 15.04C69.2028 14.58 69.6028 14.13 70.1428 13.69C70.6828 13.23 71.3728 12.85 72.2128 12.55C73.0528 12.25 74.0828 12.1 75.3028 12.1C76.5628 12.1 77.6428 12.25 78.5428 12.55C79.4428 12.85 80.1628 13.27 80.7028 13.81C81.2428 14.35 81.6428 14.98 81.9028 15.7C82.1628 16.4 82.2928 17.16 82.2928 17.98V27.25C82.2928 27.47 82.2228 27.65 82.0828 27.79C81.9428 27.93 81.7628 28 81.5428 28H78.6028C78.4028 28 78.2328 27.93 78.0928 27.79C77.9528 27.65 77.8828 27.47 77.8828 27.25V26.14C77.6228 26.52 77.2728 26.88 76.8328 27.22C76.3928 27.54 75.8628 27.8 75.2428 28C74.6428 28.2 73.9328 28.3 73.1128 28.3ZM74.3128 25.18C74.9728 25.18 75.5628 25.04 76.0828 24.76C76.6028 24.48 77.0128 24.05 77.3128 23.47C77.6128 22.89 77.7628 22.16 77.7628 21.28V20.77L74.9728 21.22C73.8928 21.4 73.1028 21.67 72.6028 22.03C72.1028 22.39 71.8528 22.83 71.8528 23.35C71.8528 23.73 71.9628 24.06 72.1828 24.34C72.4228 24.62 72.7328 24.83 73.1128 24.97C73.4928 25.11 73.8928 25.18 74.3128 25.18ZM86.6452 28C86.4452 28 86.2752 27.93 86.1352 27.79C85.9952 27.65 85.9252 27.47 85.9252 27.25V13.15C85.9252 12.93 85.9952 12.75 86.1352 12.61C86.2752 12.47 86.4452 12.4 86.6452 12.4H89.5852C89.8052 12.4 89.9852 12.47 90.1252 12.61C90.2652 12.75 90.3352 12.93 90.3352 13.15V14.32C90.8552 13.68 91.5252 13.15 92.3452 12.73C93.1652 12.31 94.1652 12.1 95.3452 12.1C96.5252 12.1 97.5552 12.37 98.4352 12.91C99.3352 13.43 100.035 14.2 100.535 15.22C101.055 16.22 101.315 17.44 101.315 18.88V27.25C101.315 27.47 101.235 27.65 101.075 27.79C100.935 27.93 100.765 28 100.565 28H97.3852C97.1652 28 96.9852 27.93 96.8452 27.79C96.7052 27.65 96.6352 27.47 96.6352 27.25V19.06C96.6352 18 96.3752 17.18 95.8552 16.6C95.3552 16 94.6152 15.7 93.6352 15.7C92.6952 15.7 91.9452 16 91.3852 16.6C90.8252 17.18 90.5452 18 90.5452 19.06V27.25C90.5452 27.47 90.4752 27.65 90.3352 27.79C90.1952 27.93 90.0252 28 89.8252 28H86.6452ZM111.06 28.3C109.82 28.3 108.75 28.16 107.85 27.88C106.97 27.58 106.25 27.22 105.69 26.8C105.15 26.38 104.74 25.96 104.46 25.54C104.2 25.1 104.06 24.73 104.04 24.43C104.02 24.21 104.09 24.03 104.25 23.89C104.41 23.75 104.57 23.68 104.73 23.68H107.64C107.7 23.68 107.76 23.69 107.82 23.71C107.88 23.73 107.94 23.78 108 23.86C108.26 24.04 108.53 24.25 108.81 24.49C109.09 24.71 109.41 24.9 109.77 25.06C110.15 25.22 110.62 25.3 111.18 25.3C111.84 25.3 112.4 25.17 112.86 24.91C113.32 24.63 113.55 24.24 113.55 23.74C113.55 23.38 113.44 23.08 113.22 22.84C113.02 22.6 112.63 22.38 112.05 22.18C111.47 21.98 110.61 21.76 109.47 21.52C108.39 21.28 107.47 20.96 106.71 20.56C105.95 20.16 105.38 19.66 105 19.06C104.62 18.44 104.43 17.7 104.43 16.84C104.43 16.06 104.67 15.31 105.15 14.59C105.65 13.87 106.38 13.28 107.34 12.82C108.3 12.34 109.5 12.1 110.94 12.1C112.04 12.1 113 12.24 113.82 12.52C114.66 12.78 115.36 13.12 115.92 13.54C116.48 13.94 116.9 14.36 117.18 14.8C117.48 15.22 117.64 15.59 117.66 15.91C117.68 16.11 117.62 16.28 117.48 16.42C117.34 16.56 117.18 16.63 117 16.63H114.33C114.23 16.63 114.14 16.62 114.06 16.6C113.98 16.56 113.91 16.51 113.85 16.45C113.61 16.29 113.36 16.11 113.1 15.91C112.86 15.69 112.57 15.5 112.23 15.34C111.89 15.18 111.45 15.1 110.91 15.1C110.25 15.1 109.74 15.25 109.38 15.55C109.04 15.83 108.87 16.19 108.87 16.63C108.87 16.91 108.96 17.17 109.14 17.41C109.32 17.65 109.69 17.87 110.25 18.07C110.81 18.27 111.66 18.48 112.8 18.7C114.16 18.94 115.24 19.3 116.04 19.78C116.84 20.26 117.41 20.82 117.75 21.46C118.11 22.08 118.29 22.75 118.29 23.47C118.29 24.41 118.01 25.25 117.45 25.99C116.89 26.71 116.07 27.28 114.99 27.7C113.93 28.1 112.62 28.3 111.06 28.3ZM121.889 28C121.689 28 121.519 27.93 121.379 27.79C121.239 27.65 121.169 27.47 121.169 27.25V13.15C121.169 12.93 121.239 12.75 121.379 12.61C121.519 12.47 121.689 12.4 121.889 12.4H124.889C125.109 12.4 125.289 12.47 125.429 12.61C125.569 12.75 125.639 12.93 125.639 13.15V27.25C125.639 27.47 125.569 27.65 125.429 27.79C125.289 27.93 125.109 28 124.889 28H121.889ZM121.799 10C121.599 10 121.429 9.93 121.289 9.79C121.149 9.65 121.079 9.47 121.079 9.25V6.85C121.079 6.63 121.149 6.45 121.289 6.31C121.429 6.15 121.599 6.07 121.799 6.07H124.949C125.169 6.07 125.349 6.15 125.489 6.31C125.649 6.45 125.729 6.63 125.729 6.85V9.25C125.729 9.47 125.649 9.65 125.489 9.79C125.349 9.93 125.169 10 124.949 10H121.799ZM136.902 28C135.662 28 134.602 27.8 133.722 27.4C132.842 26.98 132.172 26.34 131.712 25.48C131.272 24.62 131.052 23.54 131.052 22.24V15.94H128.712C128.492 15.94 128.312 15.87 128.172 15.73C128.032 15.59 127.962 15.41 127.962 15.19V13.15C127.962 12.93 128.032 12.75 128.172 12.61C128.312 12.47 128.492 12.4 128.712 12.4H131.052V7.45C131.052 7.23 131.122 7.05 131.262 6.91C131.422 6.77 131.602 6.7 131.802 6.7H134.742C134.962 6.7 135.142 6.77 135.282 6.91C135.422 7.05 135.492 7.23 135.492 7.45V12.4H139.242C139.442 12.4 139.612 12.47 139.752 12.61C139.892 12.75 139.962 12.93 139.962 13.15V15.19C139.962 15.41 139.892 15.59 139.752 15.73C139.612 15.87 139.442 15.94 139.242 15.94H135.492V21.88C135.492 22.64 135.622 23.24 135.882 23.68C136.162 24.1 136.642 24.31 137.322 24.31H139.512C139.712 24.31 139.882 24.38 140.022 24.52C140.162 24.66 140.232 24.83 140.232 25.03V27.25C140.232 27.47 140.162 27.65 140.022 27.79C139.882 27.93 139.712 28 139.512 28H136.902ZM143.929 28C143.709 28 143.529 27.93 143.389 27.79C143.249 27.65 143.179 27.47 143.179 27.25V7.75C143.179 7.53 143.249 7.35 143.389 7.21C143.529 7.07 143.709 7 143.929 7H157.309C157.529 7 157.709 7.07 157.849 7.21C157.989 7.35 158.059 7.53 158.059 7.75V10.3C158.059 10.52 157.989 10.7 157.849 10.84C157.709 10.98 157.529 11.05 157.309 11.05H147.859V16.12H156.709C156.929 16.12 157.109 16.19 157.249 16.33C157.389 16.47 157.459 16.65 157.459 16.87V19.42C157.459 19.62 157.389 19.79 157.249 19.93C157.109 20.07 156.929 20.14 156.709 20.14H147.859V27.25C147.859 27.47 147.789 27.65 147.649 27.79C147.509 27.93 147.329 28 147.109 28H143.929ZM161.88 28C161.66 28 161.48 27.93 161.34 27.79C161.2 27.65 161.13 27.47 161.13 27.25V7.45C161.13 7.23 161.2 7.05 161.34 6.91C161.48 6.77 161.66 6.7 161.88 6.7H164.88C165.08 6.7 165.25 6.77 165.39 6.91C165.53 7.05 165.6 7.23 165.6 7.45V27.25C165.6 27.47 165.53 27.65 165.39 27.79C165.25 27.93 165.08 28 164.88 28H161.88ZM176.532 28.3C174.872 28.3 173.482 28.03 172.362 27.49C171.242 26.93 170.382 26.14 169.782 25.12C169.202 24.1 168.882 22.91 168.822 21.55C168.802 21.15 168.792 20.7 168.792 20.2C168.792 19.68 168.802 19.23 168.822 18.85C168.882 17.47 169.222 16.28 169.842 15.28C170.462 14.26 171.332 13.48 172.452 12.94C173.572 12.38 174.932 12.1 176.532 12.1C178.112 12.1 179.462 12.38 180.582 12.94C181.702 13.48 182.572 14.26 183.192 15.28C183.812 16.28 184.152 17.47 184.212 18.85C184.252 19.23 184.272 19.68 184.272 20.2C184.272 20.7 184.252 21.15 184.212 21.55C184.152 22.91 183.822 24.1 183.222 25.12C182.642 26.14 181.792 26.93 180.672 27.49C179.552 28.03 178.172 28.3 176.532 28.3ZM176.532 25C177.512 25 178.252 24.7 178.752 24.1C179.252 23.48 179.522 22.58 179.562 21.4C179.582 21.1 179.592 20.7 179.592 20.2C179.592 19.7 179.582 19.3 179.562 19C179.522 17.84 179.252 16.95 178.752 16.33C178.252 15.71 177.512 15.4 176.532 15.4C175.552 15.4 174.802 15.71 174.282 16.33C173.782 16.95 173.512 17.84 173.472 19C173.452 19.3 173.442 19.7 173.442 20.2C173.442 20.7 173.452 21.1 173.472 21.4C173.512 22.58 173.782 23.48 174.282 24.1C174.802 24.7 175.552 25 176.532 25ZM191.26 28C190.98 28 190.76 27.93 190.6 27.79C190.46 27.65 190.35 27.47 190.27 27.25L185.98 13.36C185.94 13.26 185.92 13.16 185.92 13.06C185.92 12.88 185.98 12.73 186.1 12.61C186.24 12.47 186.4 12.4 186.58 12.4H189.22C189.48 12.4 189.68 12.47 189.82 12.61C189.96 12.75 190.05 12.88 190.09 13L192.82 22.27L195.73 13.06C195.77 12.92 195.86 12.78 196 12.64C196.16 12.48 196.38 12.4 196.66 12.4H198.37C198.65 12.4 198.86 12.48 199 12.64C199.16 12.78 199.26 12.92 199.3 13.06L202.21 22.27L204.94 13C204.96 12.88 205.04 12.75 205.18 12.61C205.34 12.47 205.54 12.4 205.78 12.4H208.42C208.6 12.4 208.75 12.47 208.87 12.61C209.01 12.73 209.08 12.88 209.08 13.06C209.08 13.16 209.07 13.26 209.05 13.36L204.73 27.25C204.67 27.47 204.56 27.65 204.4 27.79C204.26 27.93 204.05 28 203.77 28H201.46C201.18 28 200.96 27.93 200.8 27.79C200.64 27.65 200.52 27.47 200.44 27.25L197.53 18.37L194.56 27.25C194.5 27.47 194.39 27.65 194.23 27.79C194.07 27.93 193.85 28 193.57 28H191.26Z" fill="white"/>
<rect y="7.89111" width="9.78261" height="9.78261" transform="rotate(-30 0 7.89111)" fill="#FFB82B"/>
<rect x="4.13086" y="18" width="10" height="10" fill="#FFB82B"/>
<rect x="18.1309" y="5" width="10" height="10" fill="#FFB82B"/>
<rect x="18.1309" y="18" width="10" height="10" fill="#FFB82B"/>
</svg>

<svg xmlns="http://www.w3.org/2000/svg" width="211" height="36" fill="none"><path fill="#fff" d="M44.72 28c-.22 0-.4-.07-.54-.21a.731.731 0 0 1-.21-.54V11.17h-5.46c-.2 0-.37-.07-.51-.21a.694.694 0 0 1-.21-.51v-2.7c0-.22.07-.4.21-.54.14-.14.31-.21.51-.21h15.72c.22 0 .4.07.54.21.14.14.21.32.21.54v2.7c0 .2-.07.37-.21.51-.14.14-.32.21-.54.21H48.8v16.08c0 .22-.07.4-.21.54-.14.14-.32.21-.54.21h-3.33Zm11.75 0c-.2 0-.37-.07-.51-.21a.731.731 0 0 1-.21-.54v-14.1c0-.2.07-.37.21-.51.14-.16.31-.24.51-.24h2.94c.2 0 .37.08.51.24.16.14.24.31.24.51v1.2c.5-.62 1.11-1.1 1.83-1.44.74-.34 1.59-.51 2.55-.51h1.29c.2 0 .37.07.51.21.14.14.21.32.21.54v2.58c0 .22-.07.4-.21.54-.14.14-.31.21-.51.21h-2.64c-.88 0-1.57.25-2.07.75-.5.48-.75 1.17-.75 2.07v7.95c0 .22-.07.4-.21.54-.14.14-.32.21-.54.21h-3.15Zm16.643.3c-1.06 0-2.01-.2-2.85-.6-.84-.42-1.51-.98-2.01-1.68-.5-.7-.75-1.48-.75-2.34 0-1.42.57-2.54 1.71-3.36 1.16-.82 2.68-1.38 4.56-1.68l3.93-.57v-.54c0-.78-.18-1.38-.54-1.8-.36-.42-.99-.63-1.89-.63-.66 0-1.19.13-1.59.39-.4.26-.71.6-.93 1.02-.16.26-.39.39-.69.39h-2.85c-.22 0-.39-.06-.51-.18a.606.606 0 0 1-.15-.48c0-.34.13-.74.39-1.2.26-.46.66-.91 1.2-1.35.54-.46 1.23-.84 2.07-1.14.84-.3 1.87-.45 3.09-.45 1.26 0 2.34.15 3.24.45.9.3 1.62.72 2.16 1.26s.94 1.17 1.2 1.89c.26.7.39 1.46.39 2.28v9.27c0 .22-.07.4-.21.54-.14.14-.32.21-.54.21h-2.94c-.2 0-.37-.07-.51-.21a.731.731 0 0 1-.21-.54v-1.11c-.26.38-.61.74-1.05 1.08-.44.32-.97.58-1.59.78-.6.2-1.31.3-2.13.3Zm1.2-3.12c.66 0 1.25-.14 1.77-.42.52-.28.93-.71 1.23-1.29.3-.58.45-1.31.45-2.19v-.51l-2.79.45c-1.08.18-1.87.45-2.37.81-.5.36-.75.8-.75 1.32 0 .38.11.71.33.99.24.28.55.49.93.63s.78.21 1.2.21ZM86.645 28c-.2 0-.37-.07-.51-.21a.731.731 0 0 1-.21-.54v-14.1c0-.22.07-.4.21-.54.14-.14.31-.21.51-.21h2.94c.22 0 .4.07.54.21.14.14.21.32.21.54v1.17c.52-.64 1.19-1.17 2.01-1.59.82-.42 1.82-.63 3-.63s2.21.27 3.09.81c.9.52 1.6 1.29 2.1 2.31.52 1 .78 2.22.78 3.66v8.37c0 .22-.08.4-.24.54-.14.14-.31.21-.51.21h-3.18c-.22 0-.4-.07-.54-.21a.731.731 0 0 1-.21-.54v-8.19c0-1.06-.26-1.88-.78-2.46-.5-.6-1.24-.9-2.22-.9-.94 0-1.69.3-2.25.9-.56.58-.84 1.4-.84 2.46v8.19c0 .22-.07.4-.21.54-.14.14-.31.21-.51.21h-3.18Zm24.415.3c-1.24 0-2.31-.14-3.21-.42-.88-.3-1.6-.66-2.16-1.08-.54-.42-.95-.84-1.23-1.26-.26-.44-.4-.81-.42-1.11-.02-.22.05-.4.21-.54.16-.14.32-.21.48-.21h2.91c.06 0 .12.01.18.03a.4.4 0 0 1 .18.15c.26.18.53.39.81.63.28.22.6.41.96.57.38.16.85.24 1.41.24.66 0 1.22-.13 1.68-.39.46-.28.69-.67.69-1.17 0-.36-.11-.66-.33-.9-.2-.24-.59-.46-1.17-.66s-1.44-.42-2.58-.66c-1.08-.24-2-.56-2.76-.96-.76-.4-1.33-.9-1.71-1.5-.38-.62-.57-1.36-.57-2.22 0-.78.24-1.53.72-2.25.5-.72 1.23-1.31 2.19-1.77.96-.48 2.16-.72 3.6-.72 1.1 0 2.06.14 2.88.42.84.26 1.54.6 2.1 1.02.56.4.98.82 1.26 1.26.3.42.46.79.48 1.11.02.2-.04.37-.18.51a.66.66 0 0 1-.48.21h-2.67c-.1 0-.19-.01-.27-.03a.8.8 0 0 1-.21-.15c-.24-.16-.49-.34-.75-.54a3.45 3.45 0 0 0-.87-.57c-.34-.16-.78-.24-1.32-.24-.66 0-1.17.15-1.53.45-.34.28-.51.64-.51 1.08 0 .28.09.54.27.78.18.24.55.46 1.11.66s1.41.41 2.55.63c1.36.24 2.44.6 3.24 1.08.8.48 1.37 1.04 1.71 1.68.36.62.54 1.29.54 2.01 0 .94-.28 1.78-.84 2.52-.56.72-1.38 1.29-2.46 1.71-1.06.4-2.37.6-3.93.6Zm10.829-.3c-.2 0-.37-.07-.51-.21a.731.731 0 0 1-.21-.54v-14.1c0-.22.07-.4.21-.54.14-.14.31-.21.51-.21h3c.22 0 .4.07.54.21.14.14.21.32.21.54v14.1c0 .22-.07.4-.21.54-.14.14-.32.21-.54.21h-3Zm-.09-18c-.2 0-.37-.07-.51-.21a.731.731 0 0 1-.21-.54v-2.4c0-.22.07-.4.21-.54.14-.16.31-.24.51-.24h3.15c.22 0 .4.08.54.24.16.14.24.32.24.54v2.4c0 .22-.08.4-.24.54-.14.14-.32.21-.54.21h-3.15Zm15.103 18c-1.24 0-2.3-.2-3.18-.6a4.348 4.348 0 0 1-2.01-1.92c-.44-.86-.66-1.94-.66-3.24v-6.3h-2.34c-.22 0-.4-.07-.54-.21a.731.731 0 0 1-.21-.54v-2.04c0-.22.07-.4.21-.54.14-.14.32-.21.54-.21h2.34V7.45c0-.22.07-.4.21-.54.16-.14.34-.21.54-.21h2.94c.22 0 .4.07.54.21.14.14.21.32.21.54v4.95h3.75c.2 0 .37.07.51.21.14.14.21.32.21.54v2.04c0 .22-.07.4-.21.54-.14.14-.31.21-.51.21h-3.75v5.94c0 .76.13 1.36.39 1.8.28.42.76.63 1.44.63h2.19c.2 0 .37.07.51.21.14.14.21.31.21.51v2.22c0 .22-.07.4-.21.54-.14.14-.31.21-.51.21h-2.61Zm7.027 0c-.22 0-.4-.07-.54-.21a.731.731 0 0 1-.21-.54V7.75c0-.22.07-.4.21-.54.14-.14.32-.21.54-.21h13.38c.22 0 .4.07.54.21.14.14.21.32.21.54v2.55c0 .22-.07.4-.21.54-.14.14-.32.21-.54.21h-9.45v5.07h8.85c.22 0 .4.07.54.21.14.14.21.32.21.54v2.55c0 .2-.07.37-.21.51-.14.14-.32.21-.54.21h-8.85v7.11c0 .22-.07.4-.21.54-.14.14-.32.21-.54.21h-3.18Zm17.951 0c-.22 0-.4-.07-.54-.21a.731.731 0 0 1-.21-.54V7.45c0-.22.07-.4.21-.54.14-.14.32-.21.54-.21h3c.2 0 .37.07.51.21.14.14.21.32.21.54v19.8c0 .22-.07.4-.21.54-.14.14-.31.21-.51.21h-3Zm14.652.3c-1.66 0-3.05-.27-4.17-.81-1.12-.56-1.98-1.35-2.58-2.37-.58-1.02-.9-2.21-.96-3.57-.02-.4-.03-.85-.03-1.35 0-.52.01-.97.03-1.35.06-1.38.4-2.57 1.02-3.57.62-1.02 1.49-1.8 2.61-2.34 1.12-.56 2.48-.84 4.08-.84 1.58 0 2.93.28 4.05.84 1.12.54 1.99 1.32 2.61 2.34.62 1 .96 2.19 1.02 3.57.04.38.06.83.06 1.35 0 .5-.02.95-.06 1.35-.06 1.36-.39 2.55-.99 3.57-.58 1.02-1.43 1.81-2.55 2.37-1.12.54-2.5.81-4.14.81Zm0-3.3c.98 0 1.72-.3 2.22-.9.5-.62.77-1.52.81-2.7.02-.3.03-.7.03-1.2s-.01-.9-.03-1.2c-.04-1.16-.31-2.05-.81-2.67-.5-.62-1.24-.93-2.22-.93-.98 0-1.73.31-2.25.93-.5.62-.77 1.51-.81 2.67-.02.3-.03.7-.03 1.2s.01.9.03 1.2c.04 1.18.31 2.08.81 2.7.52.6 1.27.9 2.25.9Zm14.728 3c-.28 0-.5-.07-.66-.21-.14-.14-.25-.32-.33-.54l-4.29-13.89c-.04-.1-.06-.2-.06-.3 0-.18.06-.33.18-.45.14-.14.3-.21.48-.21h2.64c.26 0 .46.07.6.21.14.14.23.27.27.39l2.73 9.27 2.91-9.21c.04-.14.13-.28.27-.42.16-.16.38-.24.66-.24h1.71c.28 0 .49.08.63.24.16.14.26.28.3.42l2.91 9.21 2.73-9.27c.02-.12.1-.25.24-.39.16-.14.36-.21.6-.21h2.64c.18 0 .33.07.45.21.14.12.21.27.21.45 0 .1-.01.2-.03.3l-4.32 13.89c-.06.22-.17.4-.33.54-.14.14-.35.21-.63.21h-2.31c-.28 0-.5-.07-.66-.21-.16-.14-.28-.32-.36-.54l-2.91-8.88-2.97 8.88c-.06.22-.17.4-.33.54s-.38.21-.66.21h-2.31Z"/><path fill="#FFB82B" d="M0 7.891 8.472 3l4.892 8.472-8.473 4.891zM4.131 18h10v10h-10zM18.131 5h10v10h-10zM18.131 18h10v10h-10z"/></svg>
